; generated by PrusaSlicer 2.6.1+win64 on 2023-09-23 at 08:05:24 UTC


;
;

;
;

;
;
; 

; external perimeters extrusion width = 0.45mm
; perimeters extrusion width = 0.45mm
; infill extrusion width = 0.45mm
; solid infill extrusion width = 0.45mm
; top infill extrusion width = 0.40mm
; first layer extrusion width = 0.50mm

M73 P0 R11
M73 C5
M201 X2500 Y2500 Z200 E2500 ; sets maximum accelerations, mm/sec^2
M203 X200 Y200 Z40 E100 ; sets maximum feedrates, mm / sec
M204 P2000 R1200 T2000 ; sets acceleration (P, T) and retract acceleration (R), mm/sec^2
M205 X8.00 Y8.00 Z2.00 E10.00 ; sets the jerk limits, mm/sec
M205 S0 T0 ; sets the minimum extruding and travel feed rate, mm/sec
;TYPE:Custom
M17 ; enable steppers
M862.3 P "MK4" ; printer model check
M862.1 P0.4 ; nozzle diameter check
M555 X91.35 Y88.85 W67.3 H28.3

G90 ; use absolute coordinates
M83 ; extruder relative mode

M140 S85 ; set bed temp

M104 S170 ; set extruder temp for bed leveling
M109 R170 ; wait for temp


M84 E ; turn off E motor

G28 ; home all without mesh bed level

G1 X42 Y-4 Z5 F4800

M302 S160 ; lower cold extrusion limit to 160C


G1 E-2 F2400 ; retraction


M84 E ; turn off E motor

G29 P9 X10 Y-4 W32 H4



G0 Z40 F10000

M190 S85 ; wait for bed temp

M107

;
; MBL
;
M84 E ; turn off E motor
G29 P1 ; invalidate mbl & probe print area
G29 P1 X0 Y0 W50 H20 C ; probe near purge place
G29 P3.2 ; interpolate mbl probes
G29 P3.13 ; extrapolate mbl outside probe area
G29 A ; activate mbl

; prepare for purge
M104 S240
G0 X0 Y-4 Z15 F4800 ; move away and ready for the purge
M109 S240

G92 E0
M569 S0 E ; set spreadcycle mode for extruder

;
; Extrude purge line
;
G92 E0 ; reset extruder position
G1 E2 F2400 ; deretraction after the initial one before nozzle cleaning
G0 E7 X15 Z0.2 F500 ; purge
G0 X25 E4 F500 ; purge
G0 X35 E4 F650 ; purge
G0 X45 E4 F800 ; purge
G0 X48 Z0.05 F8000 ; wipe, move close to the bed
G0 X51 Z0.2 F8000 ; wipe, move quickly away from the bed

G92 E0
M221 S100 ; set flow to 100%
G21 ; set units to millimeters
G90 ; use absolute coordinates
M83 ; use relative distances for extrusion
M900 K0.07 ; Filament gcode



M142 S36 ; set heatbreak target temp
M107
;LAYER_CHANGE
;Z:0.2
;HEIGHT:0.2
;BEFORE_LAYER_CHANGE
G92 E0.0
;0.2


G1 E-1 F2100
G1 Z.15 F720
G1 Z.2
;AFTER_LAYER_CHANGE
;0.2
; printing object GridfinityStorageBox_5xY_Label_M3 id:0 copy 0
G1 Z.35
G1 X93.04 Y115.527 F12000
M73 P1 R11
G1 Z.2 F720
G1 E1 F1500
M204 P600
;TYPE:Perimeter
;WIDTH:0.499999
G1 F1200
G1 X92.875 Y115.372 E.0086
G1 X92.566 Y114.943 E.02009
G1 X92.348 Y114.404 E.0221
G1 X92.257 Y113.73 E.02585
G1 X92.257 Y96.294 E.66268
M73 P1 R10
G1 X92.328 Y95.681 E.02345
G1 X92.479 Y95.242 E.01764
G1 X92.727 Y94.799 E.0193
G1 X93.113 Y94.377 E.02174
G1 X93.572 Y94.06 E.0212
G1 X94.096 Y93.848 E.02148
G1 X94.77 Y93.757 E.02585
G1 X155.177 Y93.764 E2.29584
G1 X155.487 Y93.777 E.01179
G1 X156.125 Y93.919 E.02484
G1 X156.527 Y94.113 E.01696
G1 X156.882 Y94.371 E.01668
G1 X157.096 Y94.606 E.01208
G1 X157.387 Y94.993 E.0184
G1 X157.566 Y95.363 E.01562
G1 X157.689 Y95.801 E.01729
G1 X157.743 Y96.327 E.0201
M73 P2 R10
G1 X157.743 Y113.706 E.66051
G1 X157.672 Y114.32 E.02349
G1 X157.521 Y114.758 E.01761
G1 X157.273 Y115.202 E.01933
G1 X156.887 Y115.623 E.02171
G1 X156.428 Y115.94 E.0212
G1 X155.904 Y116.152 E.02148
G1 X155.23 Y116.243 E.02585
G1 X94.904 Y116.243 E2.29277
G1 X94.56 Y116.223 E.0131
G1 X93.996 Y116.122 E.02178
G1 X93.473 Y115.885 E.02182
G1 X93.206 Y115.681 E.01277
G1 X93.084 Y115.568 E.00632
M204 P1000
G1 X92.711 Y115.879 F12000
M204 P600
;TYPE:External perimeter
G1 F1200
G1 X92.486 Y115.621 E.01301
G1 X92.157 Y115.151 E.0218
M73 C4
G1 X91.907 Y114.532 E.02537
G1 X91.8 Y113.74 E.03037
G1 X91.8 Y96.268 E.66405
G1 X91.878 Y95.589 E.02598
G1 X92.086 Y95.001 E.0237
G1 X92.362 Y94.521 E.02104
G1 X92.81 Y94.03 E.02526
G1 X93.354 Y93.655 E.02511
G1 X93.968 Y93.407 E.02517
G1 X94.76 Y93.3 E.03037
G1 X155.226 Y93.306 E2.29809
G1 X155.775 Y93.348 E.02093
G1 X156.286 Y93.489 E.02015
G1 X156.762 Y93.719 E.02009
G1 X157.188 Y94.028 E.02
G1 X157.637 Y94.519 E.02529
G1 X157.907 Y94.971 E.02001
G1 X158.093 Y95.465 E.02006
G1 X158.152 Y95.791 E.01259
G1 X158.2 Y96.327 E.02045
M73 P3 R10
G1 X158.2 Y113.732 E.6615
G1 X158.122 Y114.411 E.02598
G1 X157.914 Y114.999 E.0237
G1 X157.638 Y115.479 E.02104
G1 X157.19 Y115.97 E.02526
G1 X156.646 Y116.345 E.02511
G1 X156.032 Y116.593 E.02517
G1 X155.24 Y116.7 E.03037
G1 X94.904 Y116.7 E2.29315
G1 X94.409 Y116.668 E.01885
G1 X93.844 Y116.554 E.02191
G1 X93.238 Y116.281 E.02526
G1 X92.759 Y115.915 E.02291
M204 P1000
G1 X92.787 Y115.545 F12000
;WIPE_START
G1 F9600
G1 X92.486 Y115.621 E-.08338
G1 X92.157 Y115.151 E-.11922
G1 X91.907 Y114.532 E-.13873
G1 X91.8 Y113.74 E-.16608
M73 P4 R10
G1 X91.8 Y111.37 E-.49259
;WIPE_END
G1 Z.35 F720
G1 X157.38 Y95.454 F12000
G1 Z.2 F720
G1 E1 F1500
M204 P600
;TYPE:Solid infill
;WIDTH:0.502595
G1 F1200
G1 X156.603 Y94.677 E.042
G1 X156.315 Y94.467 E.01362
G1 X155.98 Y94.306 E.01421
G1 X155.613 Y94.204 E.01456
G1 X155.465 Y94.189 E.00569
G1 X157.314 Y96.038 E.09995
G1 X157.332 Y96.279 E.00924
G1 X157.332 Y96.705 E.01628
G1 X154.801 Y94.175 E.13678
G1 X154.151 Y94.175 E.02484
G1 X157.332 Y97.356 E.17195
G1 X157.332 Y98.006 E.02484
G1 X153.501 Y94.175 E.20708
G1 X152.85 Y94.175 E.02488
G1 X157.332 Y98.656 E.24224
G1 X157.332 Y99.306 E.02484
G1 X152.2 Y94.175 E.27738
G1 X151.55 Y94.174 E.02484
G1 X157.332 Y99.956 E.31254
G1 X157.332 Y100.606 E.02484
G1 X150.9 Y94.174 E.34768
G1 X150.25 Y94.174 E.02484
G1 X157.332 Y101.256 E.38281
G1 X157.332 Y101.906 E.02484
G1 X149.6 Y94.174 E.41795
G1 X148.95 Y94.174 E.02484
G1 X157.332 Y102.556 E.45308
G1 X157.332 Y103.206 E.02484
G1 X148.299 Y94.174 E.48825
G1 X147.649 Y94.174 E.02484
G1 X157.332 Y103.856 E.52338
G1 X157.332 Y104.506 E.02484
G1 X146.999 Y94.174 E.55852
G1 X146.349 Y94.174 E.02484
G1 X157.332 Y105.156 E.59365
G1 X157.332 Y105.807 E.02488
G1 X145.699 Y94.174 E.62881
G1 X145.049 Y94.174 E.02484
G1 X157.332 Y106.457 E.66395
G1 X157.332 Y107.107 E.02484
M73 P5 R10
G1 X144.399 Y94.174 E.69908
G1 X143.748 Y94.174 E.02488
G1 X157.332 Y107.757 E.73425
G1 X157.332 Y108.407 E.02484
G1 X143.098 Y94.174 E.76938
G1 X142.448 Y94.174 E.02484
G1 X157.332 Y109.057 E.80452
G1 X157.332 Y109.707 E.02484
G1 X141.798 Y94.173 E.83968
G1 X141.148 Y94.173 E.02484
G1 X157.332 Y110.357 E.87481
G1 X157.332 Y111.007 E.02484
G1 X140.498 Y94.173 E.90995
G1 X139.848 Y94.173 E.02484
G1 X157.332 Y111.657 E.94508
M73 P6 R10
G1 X157.332 Y112.307 E.02484
G1 X139.197 Y94.173 E.98025
G1 X138.547 Y94.173 E.02484
G1 X157.332 Y112.957 E1.01538
G1 X157.332 Y113.608 E.02488
G1 X137.897 Y94.173 E1.05054
G1 X137.247 Y94.173 E.02484
G1 X157.272 Y114.198 E1.08244
G1 X157.195 Y114.481 E.01121
G1 X157.104 Y114.68 E.00836
G1 X136.597 Y94.173 E1.10849
M73 P7 R10
G1 X135.947 Y94.173 E.02484
G1 X156.839 Y115.066 E1.12933
G1 X156.615 Y115.311 E.01269
G1 X156.508 Y115.385 E.00497
G1 X135.296 Y94.173 E1.1466
G1 X134.646 Y94.173 E.02484
G1 X156.102 Y115.628 E1.15976
G1 X155.789 Y115.754 E.0129
G1 X155.61 Y115.787 E.00696
G1 X133.996 Y94.173 E1.16833
G1 X133.346 Y94.173 E.02484
M73 P8 R10
G1 X155.005 Y115.832 E1.17076
G1 X154.355 Y115.832 E.02484
G1 X132.696 Y94.172 E1.17079
G1 X132.046 Y94.172 E.02484
G1 X153.705 Y115.832 E1.17079
G1 X153.055 Y115.832 E.02484
G1 X131.396 Y94.172 E1.17079
G1 X130.745 Y94.172 E.02488
G1 X152.405 Y115.832 E1.17082
G1 X151.755 Y115.832 E.02484
M73 P9 R10
G1 X130.095 Y94.172 E1.17082
G1 X129.445 Y94.172 E.02484
G1 X151.105 Y115.832 E1.17082
G1 X150.454 Y115.832 E.02488
G1 X128.795 Y94.172 E1.17079
G1 X128.145 Y94.172 E.02484
G1 X149.804 Y115.832 E1.17079
G1 X149.154 Y115.832 E.02484
M73 P10 R10
G1 X127.495 Y94.172 E1.17079
G1 X126.845 Y94.172 E.02484
M73 P10 R9
G1 X148.504 Y115.832 E1.17079
G1 X147.854 Y115.832 E.02484
G1 X126.194 Y94.172 E1.17082
G1 X125.544 Y94.172 E.02484
G1 X147.204 Y115.832 E1.17082
G1 X146.554 Y115.832 E.02484
M73 P11 R9
G1 X124.894 Y94.172 E1.17082
G1 X124.244 Y94.172 E.02484
M73 C3
G1 X145.904 Y115.832 E1.17082
G1 X145.254 Y115.832 E.02484
G1 X123.594 Y94.172 E1.17082
G1 X122.944 Y94.171 E.02484
G1 X144.604 Y115.832 E1.17084
G1 X143.954 Y115.832 E.02484
G1 X122.294 Y94.171 E1.17084
G1 X121.643 Y94.171 E.02488
M73 P12 R9
G1 X143.304 Y115.832 E1.17087
G1 X142.654 Y115.832 E.02484
G1 X120.993 Y94.171 E1.17087
G1 X120.343 Y94.171 E.02484
G1 X142.003 Y115.832 E1.17084
G1 X141.353 Y115.832 E.02484
G1 X119.693 Y94.171 E1.17084
G1 X119.043 Y94.171 E.02484
M73 P13 R9
G1 X140.703 Y115.832 E1.17084
G1 X140.053 Y115.832 E.02484
G1 X118.393 Y94.171 E1.17084
G1 X117.742 Y94.171 E.02488
G1 X139.403 Y115.832 E1.17087
G1 X138.753 Y115.832 E.02484
G1 X117.092 Y94.171 E1.17087
G1 X116.442 Y94.171 E.02484
M73 P14 R9
G1 X138.103 Y115.832 E1.17087
G1 X137.453 Y115.832 E.02484
G1 X115.792 Y94.171 E1.17087
G1 X115.142 Y94.171 E.02484
G1 X136.803 Y115.832 E1.17087
G1 X136.153 Y115.832 E.02484
G1 X114.492 Y94.171 E1.17087
G1 X113.842 Y94.17 E.02484
M73 P15 R9
G1 X135.503 Y115.832 E1.1709
G1 X134.853 Y115.832 E.02484
G1 X113.191 Y94.17 E1.17092
G1 X112.541 Y94.17 E.02484
G1 X134.203 Y115.832 E1.17092
G1 X133.552 Y115.832 E.02488
G1 X111.891 Y94.17 E1.1709
G1 X111.241 Y94.17 E.02484
G1 X132.902 Y115.832 E1.1709
G1 X132.252 Y115.832 E.02484
M73 P16 R9
G1 X110.591 Y94.17 E1.1709
G1 X109.941 Y94.17 E.02484
G1 X131.602 Y115.832 E1.1709
G1 X130.952 Y115.832 E.02484
G1 X109.291 Y94.17 E1.1709
G1 X108.64 Y94.17 E.02488
G1 X130.302 Y115.832 E1.17092
G1 X129.652 Y115.832 E.02484
M73 P17 R9
G1 X107.99 Y94.17 E1.17092
G1 X107.34 Y94.17 E.02484
G1 X129.002 Y115.832 E1.17092
G1 X128.352 Y115.832 E.02484
G1 X106.69 Y94.17 E1.17092
G1 X106.04 Y94.17 E.02484
G1 X127.702 Y115.832 E1.17092
G1 X127.052 Y115.832 E.02484
M73 P18 R9
G1 X105.39 Y94.17 E1.17092
G1 X104.74 Y94.17 E.02484
G1 X126.402 Y115.832 E1.17092
G1 X125.751 Y115.832 E.02488
G1 X104.089 Y94.169 E1.17095
G1 X103.439 Y94.169 E.02484
G1 X125.101 Y115.832 E1.17095
G1 X124.451 Y115.832 E.02484
M73 P19 R9
G1 X102.789 Y94.169 E1.17095
G1 X102.139 Y94.169 E.02484
M73 P19 R8
G1 X123.801 Y115.832 E1.17095
G1 X123.151 Y115.832 E.02484
G1 X101.489 Y94.169 E1.17095
G1 X100.839 Y94.169 E.02484
G1 X122.501 Y115.832 E1.17095
G1 X121.851 Y115.832 E.02484
M73 P20 R8
G1 X100.189 Y94.169 E1.17095
G1 X99.538 Y94.169 E.02488
M73 C2
G1 X121.201 Y115.832 E1.17098
G1 X120.551 Y115.832 E.02484
G1 X98.888 Y94.169 E1.17098
G1 X98.238 Y94.169 E.02484
G1 X119.901 Y115.832 E1.17098
G1 X119.251 Y115.832 E.02484
G1 X97.588 Y94.169 E1.17098
G1 X96.938 Y94.169 E.02484
M73 P21 R8
G1 X118.601 Y115.832 E1.17098
G1 X117.951 Y115.832 E.02484
G1 X96.288 Y94.169 E1.17098
G1 X95.637 Y94.169 E.02488
G1 X117.3 Y115.832 E1.17098
G1 X116.65 Y115.832 E.02484
G1 X94.987 Y94.168 E1.171
G1 X94.587 Y94.177 E.01529
M73 P22 R8
G1 X94.383 Y94.214 E.00792
G1 X116 Y115.832 E1.16852
G1 X115.35 Y115.832 E.02484
G1 X93.893 Y94.374 E1.15987
G1 X93.768 Y94.424 E.00515
G1 X93.487 Y94.618 E.01305
G1 X114.7 Y115.832 E1.14668
G1 X114.05 Y115.832 E.02484
M73 P23 R8
G1 X93.157 Y94.938 E1.12938
G1 X93.056 Y95.048 E.00571
G1 X92.893 Y95.325 E.01228
G1 X113.4 Y115.832 E1.10849
G1 X112.75 Y115.832 E.02484
G1 X92.727 Y95.809 E1.08233
G1 X92.668 Y96.318 E.01959
G1 X92.668 Y96.4 E.00313
G1 X112.1 Y115.832 E1.05038
G1 X111.45 Y115.832 E.02484
M73 P24 R8
G1 X92.668 Y97.05 E1.01525
G1 X92.668 Y97.7 E.02484
G1 X110.8 Y115.832 E.98011
G1 X110.15 Y115.832 E.02484
G1 X92.668 Y98.35 E.94498
G1 X92.668 Y99 E.02484
G1 X109.5 Y115.832 E.90984
G1 X108.849 Y115.832 E.02488
G1 X92.668 Y99.651 E.87465
G1 X92.668 Y100.301 E.02484
G1 X108.199 Y115.832 E.83952
G1 X107.549 Y115.832 E.02484
M73 P25 R8
G1 X92.668 Y100.951 E.80438
G1 X92.668 Y101.601 E.02484
G1 X106.899 Y115.832 E.76925
G1 X106.249 Y115.832 E.02484
G1 X92.668 Y102.251 E.73411
G1 X92.668 Y102.901 E.02484
G1 X105.599 Y115.832 E.69898
G1 X104.949 Y115.832 E.02484
G1 X92.668 Y103.551 E.66384
G1 X92.668 Y104.201 E.02484
G1 X104.299 Y115.832 E.62871
G1 X103.649 Y115.832 E.02484
M73 P26 R8
G1 X92.668 Y104.851 E.59357
G1 X92.668 Y105.501 E.02484
G1 X102.999 Y115.832 E.55843
G1 X102.349 Y115.832 E.02484
G1 X92.668 Y106.151 E.5233
G1 X92.668 Y106.801 E.02484
G1 X101.699 Y115.832 E.48816
G1 X101.049 Y115.832 E.02484
G1 X92.668 Y107.451 E.45303
G1 X92.668 Y108.102 E.02488
G1 X100.398 Y115.832 E.41784
G1 X99.748 Y115.832 E.02484
G1 X92.668 Y108.752 E.3827
G1 X92.668 Y109.402 E.02484
M73 P27 R8
G1 X99.098 Y115.832 E.34757
G1 X98.448 Y115.832 E.02484
G1 X92.668 Y110.052 E.31243
G1 X92.668 Y110.702 E.02484
G1 X97.798 Y115.832 E.2773
G1 X97.148 Y115.832 E.02484
G1 X92.668 Y111.352 E.24216
G1 X92.668 Y112.002 E.02484
G1 X96.498 Y115.832 E.20703
G1 X95.848 Y115.832 E.02484
G1 X92.668 Y112.652 E.17189
G1 X92.668 Y113.302 E.02484
G1 X95.198 Y115.832 E.13676
G1 X94.804 Y115.832 E.01506
G1 X94.522 Y115.806 E.01082
G1 X92.688 Y113.972 E.09914
G1 X92.746 Y114.289 E.01232
G1 X92.934 Y114.756 E.01924
G1 X93.063 Y114.962 E.00929
G1 X93.304 Y115.238 E.01401
G1 X93.934 Y115.867 E.03403
M204 P1000
; stop printing object GridfinityStorageBox_5xY_Label_M3 id:0 copy 0
;LAYER_CHANGE
;Z:0.4
;HEIGHT:0.2
;BEFORE_LAYER_CHANGE
G92 E0.0
;0.4


;WIPE_START
G1 F9600
G1 X93.304 Y115.238 E-.185
G1 X93.063 Y114.962 E-.07614
G1 X92.934 Y114.756 E-.05051
G1 X92.746 Y114.289 E-.10462
G1 X92.688 Y113.972 E-.06697
G1 X94.446 Y115.73 E-.51676
;WIPE_END
G1 Z.35 F720
G1 Z.4
;AFTER_LAYER_CHANGE
;0.4
M104 S250 ; set temperature
M140 S90 ; set bed temperature
; printing object GridfinityStorageBox_5xY_Label_M3 id:0 copy 0
G1 Z.55
G1 X158.072 Y95.752 F12000
G1 Z.4 F720
G1 E1 F1500
M204 P900
;TYPE:Perimeter
;WIDTH:0.449999
G1 F2700
G1 X158.118 Y96.409 E.02229
G1 X158.118 Y113.723 E.58606
G1 X158.072 Y114.248 E.01784
G1 X157.943 Y114.73 E.01689
G1 X157.732 Y115.183 E.01692
G1 X157.445 Y115.592 E.01691
G1 X157.092 Y115.945 E.0169
G1 X156.683 Y116.232 E.01691
G1 X156.23 Y116.443 E.01692
G1 X155.748 Y116.572 E.01689
G1 X155.223 Y116.618 E.01784
M73 P28 R8
G1 X94.777 Y116.618 E2.04602
G1 X94.252 Y116.572 E.01784
G1 X93.77 Y116.443 E.01689
G1 X93.317 Y116.232 E.01692
G1 X92.908 Y115.945 E.01691
G1 X92.555 Y115.592 E.0169
G1 X92.268 Y115.183 E.01691
G1 X92.057 Y114.73 E.01692
G1 X91.928 Y114.248 E.01689
G1 X91.882 Y113.723 E.01784
G1 X91.882 Y96.277 E.59053
G1 X91.928 Y95.752 E.01784
G1 X92.056 Y95.274 E.01675
M73 P28 R7
G1 X92.208 Y94.96 E.01181
G1 X92.554 Y94.409 E.02202
G1 X92.908 Y94.055 E.01695
G1 X93.317 Y93.768 E.01691
G1 X93.77 Y93.557 E.01692
G1 X94.252 Y93.428 E.01689
G1 X94.777 Y93.382 E.01784
G1 X155.152 Y93.385 E2.04362
G1 X155.746 Y93.428 E.02016
G1 X156.23 Y93.557 E.01695
G1 X156.683 Y93.768 E.01692
G1 X157.092 Y94.055 E.01691
G1 X157.445 Y94.408 E.0169
G1 X157.732 Y94.817 E.01691
G1 X157.943 Y95.27 E.01692
G1 X158.057 Y95.694 E.01486
M204 P1000
G1 X158.474 Y95.681 F12000
M204 P700
;TYPE:External perimeter
G1 F1500
G1 X158.525 Y96.409 E.0247
G1 X158.525 Y113.741 E.58667
G1 X158.474 Y114.319 E.01964
G1 X158.327 Y114.87 E.0193
G1 X158.086 Y115.387 E.01931
G1 X157.758 Y115.855 E.01934
G1 X157.355 Y116.258 E.01929
G1 X156.887 Y116.586 E.01934
G1 X156.37 Y116.827 E.01931
G1 X155.819 Y116.974 E.0193
G1 X155.241 Y117.025 E.01964
G1 X94.759 Y117.025 E2.04724
G1 X94.181 Y116.974 E.01964
G1 X93.63 Y116.827 E.0193
G1 X93.113 Y116.586 E.01931
G1 X92.645 Y116.258 E.01934
G1 X92.242 Y115.855 E.01929
G1 X91.914 Y115.387 E.01934
G1 X91.673 Y114.87 E.01931
G1 X91.526 Y114.319 E.0193
G1 X91.475 Y113.741 E.01964
M73 P29 R7
G1 X91.475 Y96.259 E.59174
G1 X91.526 Y95.681 E.01964
G1 X91.673 Y95.131 E.01927
G1 X91.95 Y94.557 E.02157
G1 X92.241 Y94.146 E.01705
G1 X92.645 Y93.742 E.01934
G1 X93.113 Y93.414 E.01934
G1 X93.63 Y93.173 E.01931
G1 X94.181 Y93.026 E.0193
G1 X94.759 Y92.975 E.01964
G1 X155.308 Y92.978 E2.04951
G1 X155.818 Y93.025 E.01734
G1 X156.37 Y93.173 E.01934
M73 C1
G1 X156.887 Y93.414 E.01931
G1 X157.355 Y93.742 E.01934
G1 X157.758 Y94.145 E.01929
G1 X158.086 Y94.613 E.01934
G1 X158.327 Y95.13 E.01931
G1 X158.459 Y95.624 E.01731
M204 P1000
G1 X158.165 Y95.935 F12000
;WIPE_START
G1 F9600
